X:17
T:Johnny Don't Get Drunk
T:Johnny Don't Come Home Drunk
M: C|
Z: 2010 John Chambers <jc:trillian.mit.edu>, 2020 Josh Larios
L: 1/8
G:Key: D
K: D
[P:A]y0|:"D"fa- aa a2ag |"(A)"fdec "D"d3A | "G"BABc dBAG | "A"FE- EE   E4 |
  "D"fa- aa a2ag |"(A)"fdec "D"d3A | "G"BABc dBAG | "A"FDEF "D"D4 :|
[P:B]y0|:"D"FA- AA A3 D |     FGAB    A3A | "G"BABc dBAG | "A"FE- EE |  E4 |
  "D"FA- AA A2AA | "G" BABc "D"d3A | "G"BABc dBAG | "A"FDEF "D"D4 :|

